X: 29229
T: New Hands
R: jig
M: 6/8
K: Eminor
|:gfe fed|Bee Bef|g2 e fed|ebb bef|
gfe fed|edB dBA|BAG AGF|DEE E2 f:|
|:gee ceB|(de)e ceB|(de)e ceB|B{c}de fga|
gee ceB|(de)e ceB|B{c}de fga|gfd e2f:|

